X:322
T:Maid and the Palmer
M:4/4
L:1/8
Q:115
K:G
B2 B2 B2 AG|AGAB G2 AB|cBAG GABc|d2 ec B2 A2|
B2 B2 B2 AG|AGAB G2 AB|cBAG GABc| A4 G4||
B3 c d2 d2|d2 e2 d4|e2 d2 g2 d2 |d2 ed B2 A2|
B4 B2 AG|AGAB G2 AB|cBAG GABc | A4 G4 ||
